X:1
T:Strings of Fire
T:Strings of Fire
T:Ronan Hardiman
C:Ronan Hardiman
L:1/8
M:4/4
K:D
V:1 treble nm="Piano" snm="Pno."
V:1
 F4 A3 F/F/ | G2{AG} FD E2{!fermata!F!fermata!E} !fermata!D2 | F>A A>F{F} G2{AG} FD | E2{FE} D6 | %4
 E2 E>F{F} G2{FG} F2 | E2{EF} D2 E2 E>F | FG{FG} F2 E2{FE} D2- | D8 | F2 AF GFED | F2 AF GFED | %10
 cdef gecA | d2 (3edc d z z2 | F2 AF GFED | F2 AF GFED | (3EEE EF GFED | E(3E/E/E/ EF GFED | %16
 F2 AF GFED | F2 AF GFED | B/c/d ef gecA | d2 (3edc d z ef |: g>B (3BBB gBaB | gB (3BBB gfed | %22
 (3AAA eA fAed | cdef gfef | g>B (3BBB gBaB | gB (3BBB gfed | cdef gecA |1 d2 (3edc d z ef :|2 %28
 d2 (3edc d z z2 |: F2 AF GFED | F2 AF GFED | (3EEE EF GFED | E(3E/E/E/ EF GFED | F2 AF GFED | %34
 F2 AF GFED | B/c/d ef gecA |1 d2 (3edc d z ef :|2 d2 (3edc d2 ef |: g>B (3BBB gBaB | %39
 gB (3BBB gfed | (3AAA eA fAed | cdef gfef | g>B (3BBB gBaB | gB (3BBB gfed | cdef gecA |1 %45
 d2 (3edc d z ef :|2 d2 (3edc d z z2 ||[K:A][M:12/8] A2 a aec def e2 A | fAA eAA BcB GFE | %49
 A2 a aec def e2 G | FdF GAB ABA A z z :: E2 A ABc BcA BAG | F2 B Bcd cdB cBA | G2 G GAB GFE BGE | %54
 eee ecA Bcd BGE :: A2 a aec def e2 A | fAA eAA BcB GFE | A2 a aec def e2 G | FdF GAB ABA A z z :| %59

